src/22x22/places/folder-gruvbox-material-blue-onedrive.svg

<svg xmlns="http://www.w3.org/2000/svg" width="22" height="22" version="1">
 <rect style="opacity:0.2" width="20" height="12" x="1" y="8.5" rx="1" ry="1"/>
 <path style="fill:#45707a" d="M 1,16 C 1,16.554 1.446,17 2,17 H 20 C 20.554,17 21,16.554 21,16 V 5 C 21,4.446 20.554,4 20,4 H 11 C 9.5,4 9,2 7.5,2 H 2 C 1.446,2 1,2.446 1,3"/>
 <rect style="opacity:0.2" width="20" height="12" x="1" y="7.5" rx="1" ry="1"/>
 <rect style="fill:#d9e1cc" width="16" height="8" x="3" y="6" rx="1" ry="1"/>
 <rect style="fill:#7daea3" width="20" height="12" x="1" y="8" rx="1" ry="1"/>
 <path style="opacity:0.1;fill:#d9e1cc" d="M 2,2 C 1.446,2 1,2.446 1,3 V 3.5 C 1,2.946 1.446,2.5 2,2.5 H 7.5 C 9,2.5 9.5,4.5 11,4.5 H 20 C 20.554,4.5 21,4.946 21,5.5 V 5 C 21,4.446 20.554,4 20,4 H 11 C 9.5,4 9,2 7.5,2 Z"/>
 <path style="fill:#404946" d="M 11.5,10 C 10.628265,10.0011 9.820081,10.456316 9.367187,11.201172 9.096909,11.069817 8.8005048,11.001057 8.4999998,11 c -1.104569,0 -2,0.89543 -2,2 2.94e-4,0.0065 5.76e-4,0.01302 9.77e-4,0.01953 -0.860819,0.123751 -1.500121,0.860825 -1.500977,1.73047 0,0.966498 0.783502,1.75 1.75,1.75 0.317187,-0.0012 0.628072,-0.08867 0.899414,-0.25293 -0.0943,-0.231426 -0.149414,-0.483099 -0.149414,-0.74707 0,-0.951457 0.689254,-1.716824 1.5839842,-1.915039 C 9.289857,12.413677 10.272138,11.5 11.5,11.5 h 9.76e-4 c 0.822411,10e-4 1.518645,0.467044 1.980469,1.125976 C 13.654023,12.578196 13.819683,12.500163 14,12.5 14,11.119288 12.880712,10 11.5,10 Z m 0,2 A 2,2 0 0 0 9.5,14 1.5,1.5 0 0 0 7.9999998,15.5 1.5,1.5 0 0 0 9.5,17 h 6.25 A 1.25,1.25 0 0 0 17,15.75 1.25,1.25 0 0 0 15.75,14.5 1.25,1.25 0 0 0 15.499023,14.52734 1.5,1.5 0 0 0 15.5,14.5 1.5,1.5 0 0 0 14,13 1.5,1.5 0 0 0 13.315429,13.166015 2,2 0 0 0 11.5,12 Z"/>
</svg>

<?xml version="1.0" encoding="UTF-8"?>
<svg width="22" height="22" version="1" xmlns="http://www.w3.org/2000/svg">
 <rect x="1" y="8.5" width="20" height="12" rx="1" ry="1" opacity=".2"/>
 <path d="m1 16c0 0.554 0.446 1 1 1h18c0.554 0 1-0.446 1-1v-11c0-0.554-0.446-1-1-1h-9c-1.5 0-2-2-3.5-2h-5.5c-0.554 0-1 0.446-1 1" fill="#45707a"/>
 <rect x="1" y="7.5" width="20" height="12" rx="1" ry="1" opacity=".2"/>
 <rect x="3" y="6" width="16" height="8" rx="1" ry="1" fill="#d9e1cc"/>
 <rect x="1" y="8" width="20" height="12" rx="1" ry="1" fill="#7daea3"/>
 <path d="m2 2c-0.554 0-1 0.446-1 1v0.5c0-0.554 0.446-1 1-1h5.5c1.5 0 2 2 3.5 2h9c0.554 0 1 0.446 1 1v-0.5c0-0.554-0.446-1-1-1h-9c-1.5 0-2-2-3.5-2z" fill="#d9e1cc" opacity=".1"/>
 <path d="m11.5 10c-0.87174 0.0011-1.6799 0.45632-2.1328 1.2012-0.27028-0.13136-0.56668-0.20012-0.86719-0.20117-1.1046 0-2 0.89543-2 2 2.94e-4 0.0065 5.76e-4 0.01302 9.77e-4 0.01953-0.86082 0.12375-1.5001 0.86082-1.501 1.7305 0 0.9665 0.7835 1.75 1.75 1.75 0.31719-0.0012 0.62807-0.08867 0.89941-0.25293-0.0943-0.23143-0.14941-0.4831-0.14941-0.74707 0-0.95146 0.68925-1.7168 1.584-1.915 0.20587-1.1713 1.1882-2.085 2.416-2.085h9.76e-4c0.82241 1e-3 1.5186 0.46704 1.9805 1.126 0.17258-0.04778 0.33824-0.12581 0.51856-0.12598 0-1.3807-1.1193-2.5-2.5-2.5zm0 2a2 2 0 0 0-2 2 1.5 1.5 0 0 0-1.5 1.5 1.5 1.5 0 0 0 1.5 1.5h6.25a1.25 1.25 0 0 0 1.25-1.25 1.25 1.25 0 0 0-1.25-1.25 1.25 1.25 0 0 0-0.25098 0.02734 1.5 1.5 0 0 0 9.77e-4 -0.02734 1.5 1.5 0 0 0-1.5-1.5 1.5 1.5 0 0 0-0.68457 0.16602 2 2 0 0 0-1.8154-1.166z" fill="#404946"/>
</svg>
